X:34
T:Polska
R:polska J
Z:id:hn-jp-34
M:3/4
L:1/16
K:A
A3c efed c2e2 | a3f d2fd e4 | A3c efed c2ec | B2AG A2ce a4 |
A3c efed c2e2 | a3f d2fd e4 | A3c efed c2ec |1 B2AG A6E2 :|2 B2AG A6ag||
|: f3d Adfd Adfd | e3c Acec Acec | d3B EGBG EGBG | AGAB cBcd e2ag |
f3d Adfd Adfd | e3c Acec Acec | d3B EGBG EGBG |1 A4 A6ag:|2 A4 A6E2 ||

